svg/fluentui-system-icons/ic_fluent_emoji_hand_24_filled.svg

<svg width="24" height="24" viewBox="0 0 24 24" fill="none" xmlns="http://www.w3.org/2000/svg">
<path d="M7.5 7.50024V1.75C7.5 1.33579 7.83579 1 8.25 1C8.66421 1 9 1.33579 9 1.75V7.50024C9 7.77639 9.22386 8.00024 9.5 8.00024C9.77614 8.00024 10 7.77639 10 7.50024V2.5C10 2.08579 10.3358 1.75 10.75 1.75C11.1642 1.75 11.5 2.08579 11.5 2.5V8.25C11.5 8.27121 11.4991 8.29222 11.4974 8.31299C11.9296 8.14967 12.4709 7.9962 13 7.9962C13.4998 7.9962 13.9273 8.12103 14.2442 8.28064C14.4007 8.35943 14.5462 8.45477 14.665 8.5629C14.7235 8.61604 14.7909 8.68624 14.8496 8.77348C14.8957 8.84205 15 9.0131 15 9.25C15 9.50859 14.8668 9.74895 14.6475 9.886L12.7412 11.0775L11.0833 12.9685L9.70603 14.8656C9.18866 15.5782 8.36129 15.9999 7.48066 15.9999H6.34213C5.41115 15.9999 4.5185 15.5271 4.03724 14.6888C3.7351 14.1626 3.36104 13.4711 3.06032 12.7868C2.77423 12.1357 2.5 11.3739 2.5 10.7499V3.75C2.5 3.33579 2.83579 3 3.25 3C3.66421 3 4 3.33579 4 3.75V7.99793C4 8.27407 4.22386 8.49793 4.5 8.49793C4.77614 8.49793 5 8.27407 5 7.99793V2.5C5 2.08579 5.33579 1.75 5.75 1.75C6.16421 1.75 6.5 2.08579 6.5 2.5V7.50024C6.5 7.77639 6.72386 8.00024 7 8.00024C7.27614 8.00024 7.5 7.77639 7.5 7.50024ZM14.9999 22C11.7986 22 9.0992 19.851 8.26562 16.9169C9.16145 16.7251 9.96626 16.2092 10.5152 15.4531L11.8655 13.5932L13.3959 11.8474L15.1774 10.734C15.6891 10.4142 15.9999 9.85341 15.9999 9.25002C15.9999 8.71872 15.7671 8.34608 15.6794 8.21563C15.6304 8.14276 15.5795 8.07751 15.5298 8.01978C19.1482 8.29058 21.9999 11.3123 21.9999 15C21.9999 18.866 18.8659 22 14.9999 22ZM17.9999 14C17.9999 13.4477 17.5522 13 16.9999 13C16.4476 13 15.9999 13.4477 15.9999 14C15.9999 14.5523 16.4476 15 16.9999 15C17.5522 15 17.9999 14.5523 17.9999 14ZM12.1372 16.7122C11.8387 16.9993 11.8295 17.4741 12.1166 17.7726C12.8434 18.5283 13.8671 19 14.9997 19C16.1323 19 17.156 18.5283 17.8828 17.7726C18.17 17.4741 18.1608 16.9993 17.8622 16.7122C17.5637 16.425 17.0889 16.4343 16.8018 16.7328C16.346 17.2066 15.7078 17.5 14.9997 17.5C14.2917 17.5 13.6534 17.2066 13.1977 16.7328C12.9105 16.4343 12.4357 16.425 12.1372 16.7122ZM13.9999 14C13.9999 13.4477 13.5522 13 12.9999 13C12.4476 13 11.9999 13.4477 11.9999 14C11.9999 14.5523 12.4476 15 12.9999 15C13.5522 15 13.9999 14.5523 13.9999 14Z" fill="#212121"/>
</svg>

<svg xmlns="http://www.w3.org/2000/svg" width="24" height="24"><path d="M7.5 7.5V1.75a.75.75 0 0 1 1.5 0V7.5a.5.5 0 1 0 1 0v-5a.75.75 0 0 1 1.5 0v5.75c0 .021 0 .042-.003.063.433-.163.974-.317 1.503-.317.5 0 .927.125 1.244.285.157.078.302.174.421.282.059.053.126.123.185.21.046.07.15.24.15.477a.75.75 0 0 1-.352.636l-1.907 1.192-1.658 1.89-1.377 1.898A2.75 2.75 0 0 1 7.481 16H6.342a2.643 2.643 0 0 1-2.305-1.311 20.7 20.7 0 0 1-.977-1.902c-.286-.651-.56-1.413-.56-2.037v-7a.75.75 0 0 1 1.5 0v4.248a.5.5 0 0 0 1 0V2.5a.75.75 0 0 1 1.5 0v5a.5.5 0 1 0 1 0ZM15 22a7.003 7.003 0 0 1-6.734-5.083 3.75 3.75 0 0 0 2.25-1.464l1.35-1.86 1.53-1.746 1.781-1.113c.512-.32.823-.88.823-1.484a1.86 1.86 0 0 0-.32-1.034 2.076 2.076 0 0 0-.15-.196A7 7 0 0 1 15 22Zm3-8a1 1 0 1 0-2 0 1 1 0 0 0 2 0Zm-5.863 2.712a.75.75 0 0 0-.02 1.06A3.99 3.99 0 0 0 15 19a3.99 3.99 0 0 0 2.883-1.227.75.75 0 1 0-1.081-1.04A2.49 2.49 0 0 1 15 17.5a2.49 2.49 0 0 1-1.802-.767.75.75 0 0 0-1.06-.02ZM14 14a1 1 0 1 0-2 0 1 1 0 0 0 2 0Z"/></svg>
